X: 21011
M: 6/8
L: 1/8
K: Bb
V: 1 name="4"
|:\
cBB Bdc | BGB BGB | FBB Bcd | ecA B3 H:|
|:\
b2g fdf | b2g fdf | fgf fed | dcc c3 |\
b2g fdf | b2g fdf | BcB Bcd | ecA "^D.C."B3 :|


